X:1
T:Lumps of Pudding
M:6/8
L:1/8
S:John Bell (1783-1864) music manuscript collection (c. 1812)
Z:AK/Fiddler's Companion
K:Gmin
A|BAB Ggf|dcd G2B|AGA Ffd|cAc F2A|
BAB Ggf|dBd f2d|cAF GAc|d2G G2:||:
A|Bdg Bdg|Bdg G2B|Acf Acf|Acf F2A|
Bdg Bdg|Bdg f2d|cAF GAc|d2G G2:|]

